assets/White cane/Flat/white_cane_flat.svg

<svg width="32" height="32" viewBox="0 0 32 32" fill="none" xmlns="http://www.w3.org/2000/svg">
<path d="M26.0128 5.98715C26.0044 6.15546 26 6.32658 26 6.5C26 8.98528 26.8954 11 28 11C29.1046 11 30 8.98528 30 6.5C30 4.9901 29.6695 3.65388 29.1624 2.83762L28.3576 3.64243C28.5913 4.19283 28.75 5.26612 28.75 6.5C28.75 8.29492 28.4142 9.75 28 9.75C27.5858 9.75 27.25 8.29492 27.25 6.5C27.25 5.79517 27.3018 5.14274 27.3897 4.61025L26.0128 5.98715Z" fill="#321B41"/>
<path d="M24.8632 7.13675C25.449 7.72253 24.719 9.40233 24.1332 9.98812L11.5607 22.5607L9.24334 22.4315L9.43933 20.4393L22.0119 7.86679C22.5977 7.28101 24.2775 6.55096 24.8632 7.13675Z" fill="#D3D3D3"/>
<path d="M4.18933 25.6893L3.87481 26.0039C2.82856 26.0685 2 26.9375 2 28C2 29.1046 2.89543 30 4 30C5.06253 30 5.93155 29.1714 5.99615 28.1252L6.31065 27.8107V26.0039L4.18933 25.6893Z" fill="#D3D3D3"/>
<path d="M29.5607 2.43934C30.1464 3.02513 30.1464 3.97487 29.5607 4.56066L24.0607 10.0607L21.9393 7.93934L27.4393 2.43934C28.0251 1.85355 28.9749 1.85355 29.5607 2.43934Z" fill="#533566"/>
<path d="M4.18933 25.6893L9.43933 20.4393L11.5607 22.5607L6.31065 27.8107L4.18933 25.6893Z" fill="#CA0B4A"/>
</svg>

<svg xmlns="http://www.w3.org/2000/svg" width="32" height="32" fill="none"><path fill="#321B41" d="M26.013 5.987c-.009.168-.013.34-.013.513 0 2.485.895 4.5 2 4.5s2-2.015 2-4.5c0-1.51-.33-2.846-.838-3.662l-.804.804c.233.55.392 1.624.392 2.858 0 1.795-.336 3.25-.75 3.25s-.75-1.455-.75-3.25c0-.705.052-1.357.14-1.89l-1.377 1.377Z"/><path fill="#D3D3D3" d="M24.863 7.137c.586.586-.144 2.265-.73 2.851L11.561 22.561l-2.318-.13.196-1.992L22.012 7.867c.586-.586 2.265-1.316 2.851-.73ZM4.19 25.69l-.315.314a2 2 0 1 0 2.121 2.121l.315-.314v-1.807l-2.122-.315Z"/><path fill="#533566" d="M29.56 2.44a1.5 1.5 0 0 1 0 2.12l-5.5 5.5-2.12-2.12 5.5-5.5a1.5 1.5 0 0 1 2.12 0Z"/><path fill="#CA0B4A" d="m4.19 25.69 5.25-5.25 2.12 2.12-5.25 5.25-2.12-2.12Z"/></svg>
